src/components/Icon/assets/rotate.svg

<svg width="24" height="24" viewBox="0 0 24 24" fill="none" xmlns="http://www.w3.org/2000/svg">
<path fill-rule="evenodd" clip-rule="evenodd" d="M12.0031 2.2179C9.35211 2.2179 6.86011 3.2449 4.97611 5.1069L2.85711 2.9879C2.54211 2.6729 2.00311 2.8959 2.00311 3.3409V8.9679C2.00311 9.2439 2.22711 9.4679 2.50311 9.4679H8.13011C8.57511 9.4679 8.79811 8.9289 8.48311 8.6139L6.39011 6.5209C7.89711 5.0359 9.88611 4.2179 12.0031 4.2179C16.4141 4.2179 20.0031 7.8069 20.0031 12.2179C20.0031 16.6289 16.4141 20.2179 12.0031 20.2179C7.59211 20.2179 4.00311 16.6289 4.00311 12.2179H2.00311C2.00311 17.7319 6.48911 22.2179 12.0031 22.2179C17.5171 22.2179 22.0031 17.7319 22.0031 12.2179C22.0031 6.7039 17.5171 2.2179 12.0031 2.2179" fill="#65676A"/>
</svg>

<svg xmlns="http://www.w3.org/2000/svg" width="24" height="24" viewBox="0 0 24 24">
    <path fill="#65676A" fill-rule="evenodd" d="M12.003 2.218c-2.65 0-5.143 1.027-7.027 2.889l-2.119-2.12c-.315-.314-.854-.091-.854.354v5.627c0 .276.224.5.5.5H8.13c.445 0 .668-.54.353-.854L6.39 6.52c1.507-1.485 3.496-2.303 5.613-2.303 4.411 0 8 3.589 8 8 0 4.41-3.589 8-8 8-4.41 0-8-3.59-8-8h-2c0 5.514 4.486 10 10 10s10-4.486 10-10-4.486-10-10-10"/>
</svg>
